img/list-marker-1@35px.svg

<?xml version="1.0" encoding="UTF-8"?>
<svg width="24px" height="24px" viewBox="0 0 24 24" version="1.1" xmlns="http://www.w3.org/2000/svg" xmlns:xlink="http://www.w3.org/1999/xlink">
    <!-- Generator: Sketch 64 (93537) - https://sketch.com -->
    <title>list-marker-1@35px</title>
    <desc>Created with Sketch.</desc>
    <g id="list-marker-1@35px" stroke="none" stroke-width="1" fill="none" fill-rule="evenodd">
        <path d="M12,4 C16.418278,4 20,7.581722 20,12 C20,16.418278 16.418278,20 12,20 C7.581722,20 4,16.418278 4,12 C4,7.581722 7.581722,4 12,4 Z M12.7970909,8.53818182 L10.432,9.07927273 L10.432,9.40218182 L11.4618182,9.30618182 L11.4618182,12.8407273 C11.4618182,13.3730909 11.4530909,13.9316364 11.4443636,14.4814545 L10.1963636,14.6385455 L10.1963636,14.9090909 L14.08,14.9090909 L14.08,14.6385455 L12.9105455,14.4814545 C12.9018182,13.9316364 12.8930909,13.3730909 12.8930909,12.8407273 L12.8930909,10.0567273 L12.928,8.63418182 L12.7970909,8.53818182 Z" id="Combined-Shape" fill="#5C7D7B"></path>
    </g>
</svg>

<svg width="24" height="24" xmlns="http://www.w3.org/2000/svg"><path d="M12 4a8 8 0 110 16 8 8 0 010-16zm.797 4.538l-2.365.541v.323l1.03-.096v3.535c0 .532-.009 1.09-.018 1.64l-1.248.158v.27h3.884v-.27l-1.17-.158c-.008-.55-.017-1.108-.017-1.64v-2.784l.035-1.423-.13-.096z" fill="#5C7D7B" fill-rule="evenodd"/></svg>
